UI/Tools/SVG/add-place_solid_16px.svg

<svg width="16" height="16" viewBox="0 0 16 16" fill="none" xmlns="http://www.w3.org/2000/svg">
<path d="M9.15 13.46L8 15L5 11H4C3.20435 11 2.44129 10.6839 1.87868 10.1213C1.31607 9.55871 1 8.79565 1 8V4C1 3.20435 1.31607 2.44129 1.87868 1.87868C2.44129 1.31607 3.20435 1 4 1H12C12.7956 1 13.5587 1.31607 14.1213 1.87868C14.6839 2.44129 15 3.20435 15 4V8C14.9994 8.58265 14.8291 9.15252 14.51 9.64C13.9868 9.26867 13.3714 9.04873 12.7314 9.00434C12.0914 8.95995 11.4516 9.09284 10.8822 9.3884C10.3127 9.68395 9.83581 10.1307 9.50377 10.6797C9.17173 11.2286 8.99742 11.8585 9 12.5C9.00279 12.8256 9.05333 13.1491 9.15 13.46ZM15 12H13V10H12V12H10V13H12V15H13V13H15V12Z" fill="#0F1621"/>
</svg>

<svg xmlns="http://www.w3.org/2000/svg" width="16" height="16" viewBox="0 0 16 16"><rect width="16" height="16" style="fill:none"/><rect width="16" height="16" style="fill:none"/><rect width="16" height="16" style="fill:none"/><path d="M9.15,13.46,8,15,5,11H4A3,3,0,0,1,1,8V4A3,3,0,0,1,4,1h8a3,3,0,0,1,3,3V8a3,3,0,0,1-.49,1.64A3.49,3.49,0,0,0,9,12.5,3.33,3.33,0,0,0,9.15,13.46ZM15,12H13V10H12v2H10v1h2v2h1V13h2Z"/></svg>
